X:563
T:Miss Margaret Campbell (Saddell)
R:Reel
C:Robert Mackintosh
B:The Athole Collection
M:C|
L:1/8
K:A
c|AecA ecae|fdec dBBc|AecA ecae|fdBe cAA:|
e|agae cAec|Bbba bffg|agae cAec|dfed cAAe|
agae cAec|Bbba bffg|afbg afed|ceBe cAA||

